X:1213
T:Sheehan's Reel
M:C|
L:1/8
R:Reel
B:O'Neill's 1213
N:Collected by Fielding
Z:Transcribed by Trish O'Neil
K:G
D|G2BG DGBG|ABcA BGGB|AGAB cBcA|EAAG FDEF|
G2BG DGBd|cBAB cdef|gedBc2Bc|dBcA BGG2||
f|g2bg dgbg|gbag fdde|f2af dfaf|gbag fddf|
g2bg dgbg|gbag fdef|agedBc2Bc|dBdcA BGG2||
